public/cards/6_green.svg

<svg width="242" height="362" viewBox="0 0 242 362" fill="none" xmlns="http://www.w3.org/2000/svg">
<path d="M201 1H41C18.9086 1 1 18.9086 1 41V321C1 343.091 18.9086 361 41 361H201C223.091 361 241 343.091 241 321V41C241 18.9086 223.091 1 201 1Z" fill="white" stroke="black" stroke-width="2"/>
<path d="M201 21H41C29.9543 21 21 29.9543 21 41V321C21 332.046 29.9543 341 41 341H201C212.046 341 221 332.046 221 321V41C221 29.9543 212.046 21 201 21Z" fill="#55AA55"/>
<path fill-rule="evenodd" clip-rule="evenodd" d="M181 81C92.6344 81 21 152.634 21 241C21 263.091 38.9086 281 61 281C149.366 281 221 209.366 221 121C221 98.9086 203.091 81 181 81Z" fill="white"/>
<path fill-rule="evenodd" clip-rule="evenodd" d="M121 121C98.9086 121 81 138.909 81 161V201C81 223.091 98.9086 241 121 241C143.091 241 161 223.091 161 201C161 178.909 143.091 161 121 161C113.732 161 106.874 162.987 101 166.375V161C101 149.954 109.954 141 121 141C128.817 141 135.46 145.588 138.75 152.125L156.75 143.125C150.193 129.988 136.681 121 121 121ZM121 181C132.046 181 141 189.954 141 201C141 212.046 132.046 221 121 221C109.954 221 101 212.046 101 201C101 189.954 109.954 181 121 181ZM101 245V253H141V245H101Z" fill="#55AA55"/>
<path fill-rule="evenodd" clip-rule="evenodd" d="M51 31C39.9543 31 31 39.9543 31 51V70.9999C31 82.0456 39.9543 91 51 91C62.0457 91 71 82.0456 71 70.9999C71 59.9542 62.0457 51 51 51C47.366 51 43.9368 51.9935 41 53.6875V51C41 45.4772 45.4772 41 51 41C54.9085 41 58.2302 43.2941 59.875 46.5625L68.875 42.0625C65.5965 35.4938 58.8405 31 51 31ZM51 61C56.5228 61 61 65.477 61 70.9999C61 76.5227 56.5228 81 51 81C45.4772 81 41 76.5227 41 70.9999C41 65.477 45.4772 61 51 61Z" fill="white"/>
<path fill-rule="evenodd" clip-rule="evenodd" d="M191 331C202.046 331 211 322.046 211 311V291C211 279.954 202.046 271 191 271C179.954 271 171 279.954 171 291C171 302.046 179.954 311 191 311C194.634 311 198.063 310.006 201 308.312V311C201 316.523 196.523 321 191 321C187.092 321 183.77 318.706 182.125 315.437L173.125 319.937C176.403 326.506 183.16 331 191 331ZM191 301C185.477 301 181 296.523 181 291C181 285.477 185.477 281 191 281C196.523 281 201 285.477 201 291C201 296.523 196.523 301 191 301Z" fill="white"/>
</svg>

<svg xmlns="http://www.w3.org/2000/svg" width="242" height="362" fill="none"><path fill="#fff" stroke="#000" stroke-width="2" d="M201 1H41C18.909 1 1 18.909 1 41v280c0 22.091 17.909 40 40 40h160c22.091 0 40-17.909 40-40V41c0-22.091-17.909-40-40-40Z"/><path fill="#5A5" d="M201 21H41c-11.046 0-20 8.954-20 20v280c0 11.046 8.954 20 20 20h160c11.046 0 20-8.954 20-20V41c0-11.046-8.954-20-20-20Z"/><path fill="#fff" fill-rule="evenodd" d="M181 81C92.634 81 21 152.634 21 241c0 22.091 17.909 40 40 40 88.366 0 160-71.634 160-160 0-22.091-17.909-40-40-40Z" clip-rule="evenodd"/><path fill="#5A5" fill-rule="evenodd" d="M121 121c-22.091 0-40 17.909-40 40v40c0 22.091 17.909 40 40 40s40-17.909 40-40-17.909-40-40-40a40.014 40.014 0 0 0-20 5.375V161c0-11.046 8.954-20 20-20 7.817 0 14.46 4.588 17.75 11.125l18-9C150.193 129.988 136.681 121 121 121Zm0 60c11.046 0 20 8.954 20 20s-8.954 20-20 20-20-8.954-20-20 8.954-20 20-20Zm-20 64v8h40v-8h-40Z" clip-rule="evenodd"/><path fill="#fff" fill-rule="evenodd" d="M51 31c-11.046 0-20 8.954-20 20v20c0 11.046 8.954 20 20 20s20-8.954 20-20-8.954-20-20-20c-3.634 0-7.063.993-10 2.688V51c0-5.523 4.477-10 10-10 3.908 0 7.23 2.294 8.875 5.563l9-4.5C65.597 35.492 58.84 31 51 31Zm0 30c5.523 0 10 4.477 10 10s-4.477 10-10 10-10-4.477-10-10 4.477-10 10-10Zm140 270c11.046 0 20-8.954 20-20v-20c0-11.046-8.954-20-20-20s-20 8.954-20 20 8.954 20 20 20c3.634 0 7.063-.994 10-2.688V311c0 5.523-4.477 10-10 10-3.908 0-7.23-2.294-8.875-5.563l-9 4.5C176.403 326.506 183.16 331 191 331Zm0-30c-5.523 0-10-4.477-10-10s4.477-10 10-10 10 4.477 10 10-4.477 10-10 10Z" clip-rule="evenodd"/></svg>
